app/images/background/zeppelin_order.svg

<svg xmlns="http://www.w3.org/2000/svg" width="171.727" height="137.333" viewBox="0 0 171.727 137.333"><path fill="#E9E2D3" d="M28.01 52.266l11.578-1.628v3.975l6.48-.91V43.247l-2.506.352V19.84l-16.33 2.295-3.196 24.21-2.505.35v10.456l6.48-.91v-3.974zm4.71-24.422l4.362-.613v17.28l-6.74.947 2.377-17.613zm21.987 13.54l7.128-1 .648 7.036 6.48-.91-2.938-29.827-15.51 2.18-2.937 30.652 6.48-.91.65-7.22zm1.512-16.842l4.103-.577.95 10.02-6.005.843.95-10.286zm35.64 12.27l-13.393 1.882v-5.4l6.825-.958v-6.48l-6.825.96v-5.4l13.392-1.883v-6.48l-19.873 2.794v30.24l19.872-2.793v-6.482zm34.255-28.574l-6.48.91v23.76l-5.398.76V9.908l-6.48.91v23.76l-5.4.76v-23.76l-6.48.91v30.24l30.24-4.25V8.238zm11.147 9.536V6.67l-6.48.912v30.24l19.872-2.793V15.89l-13.392 1.884zm6.912 11.685l-6.912.97v-6.177l6.912-.972v6.18zM37.446 85.74l10.716-1.507V74.36l-7.296 1.026V72.72l7.296-1.026v-3.42L37.446 69.78v15.96zm3.42-6.934l3.876-.545v3.034l-3.876.544v-3.032zm9.69-10.87v15.96l10.487-1.473v-10.1l-7.068.993v-5.86l-3.42.48zm7.068 8.287v3.26l-3.648.514v-3.26l3.648-.514zm9.12 5.4v-15.96l-3.42.48v15.96l3.42-.48zm13.11-6.814l-3.42.48v1.55l-3.876.545v-9.12l3.876-.545v1.55l3.42-.48v-4.97l-10.716 1.506v15.96l10.716-1.506v-4.97zm8.435 3.784v-12.54l3.647-.513v-3.42L81.22 63.628v3.42l3.65-.513v12.54l3.42-.48zm8.663-6.006l7.296-1.025V60.39l-10.717 1.507v15.96l3.42-.48v-4.79zm0-7.752l3.876-.545v4.333l-3.877.545v-4.332zm25.764 8.92v-15.96l-3.42.48v15.96l3.42-.48zM109.95 59.588l-3.42.48v15.96l10.487-1.475v-10.1l-7.068.993v-5.86zm3.648 8.767v3.26l-3.648.513v-3.26l3.648-.513zm22.867 3.466v-15.96l-3.42.48-4.514 10.165v-9.53l-3.42.48v15.96l3.42-.48 4.515-10.164v9.53l3.42-.48zm-2.827-19.803l-5.7.8v2.85l5.7-.8v-2.85zM26.152 131.727l20.304-2.854v-9.418l-6.48.91v2.938l-7.344 1.032v-17.28l7.344-1.032v2.938l6.48-.91v-9.417l-20.304 2.854v30.24zm22.896-26.978l6.912-.972v23.76l6.48-.91v-23.76l6.912-.973v-6.48L49.048 98.27v6.48zM73.8 94.79l-2.937 30.653 6.48-.91.648-7.22 7.13-1.002.647 7.038 6.48-.91L89.31 92.61 73.8 94.79zm4.753 15.964l.95-10.286 4.105-.576.95 10.02-6.005.842zm16.72 11.258l6.478-.91v-9.072l13.825-1.942v-21.17L95.27 91.774v30.24zm6.478-24.67l7.345-1.032v8.208l-7.344 1.032v-8.208zm15.9-2.234l6.91-.972v23.76l6.48-.91v-23.76l6.913-.972v-6.48l-20.305 2.854v6.48zm24.104 10.868l5.227-.735.65-20.825-6.524.916.648 20.646zm-.518 9.576l6.265-.88v-6.264l-6.264.88v6.264z"/></svg>

<?xml version="1.0" encoding="utf-8"?>
<!-- Generator: Adobe Illustrator 15.0.0, SVG Export Plug-In . SVG Version: 6.00 Build 0)  -->
<!DOCTYPE svg PUBLIC "-//W3C//DTD SVG 1.1//EN" "http://www.w3.org/Graphics/SVG/1.1/DTD/svg11.dtd">
<svg version="1.1" id="Layer_1" xmlns="http://www.w3.org/2000/svg" xmlns:xlink="http://www.w3.org/1999/xlink" x="0px" y="0px"
	 width="171.727px" height="137.333px" viewBox="0 0 171.727 137.333" enable-background="new 0 0 171.727 137.333"
	 xml:space="preserve">
<g>
	<g>
		<path fill="#E9E2D3" d="M28.01,52.266l11.578-1.628v3.975l6.48-0.911V43.248L43.562,43.6V19.84l-16.329,2.295l-3.197,24.209
			l-2.505,0.352v10.455l6.48-0.911V52.266z M32.719,27.844l4.363-0.613V44.51l-6.739,0.947L32.719,27.844z M54.707,41.385
			l7.128-1.002l0.648,7.037l6.48-0.91l-2.938-29.827l-15.509,2.18l-2.938,30.652l6.48-0.91L54.707,41.385z M56.219,24.542
			l4.104-0.577l0.95,10.019l-6.005,0.844L56.219,24.542z M91.859,36.812l-13.392,1.882v-5.399l6.825-0.959v-6.48l-6.825,0.959
			v-5.399l13.392-1.883v-6.479l-19.872,2.793v30.24l19.872-2.793V36.812z M126.115,8.238l-6.479,0.911v23.76l-5.399,0.759V9.907
			l-6.48,0.911v23.76l-5.4,0.759v-23.76l-6.479,0.911v30.24l30.239-4.25V8.238z M137.262,17.774V6.671l-6.48,0.911v30.24
			l19.872-2.793V15.891L137.262,17.774z M144.174,29.459l-6.912,0.972v-6.178l6.912-0.972V29.459z M37.446,85.74l10.716-1.507
			v-9.872l-7.296,1.025v-2.667l7.296-1.025v-3.42L37.446,69.78V85.74z M40.866,78.806l3.876-0.545v3.033l-3.876,0.544V78.806z
			 M50.555,67.937v15.96l10.488-1.474V72.323l-7.068,0.993v-5.859L50.555,67.937z M57.624,76.223v3.261l-3.648,0.513v-3.261
			L57.624,76.223z M66.743,81.622v-15.96l-3.42,0.481v15.96L66.743,81.622z M79.854,74.809l-3.42,0.48v1.551l-3.876,0.545v-9.12
			l3.876-0.545v1.55l3.42-0.48v-4.97l-10.716,1.506v15.96l10.716-1.506V74.809z M88.289,78.594v-12.54l3.648-0.513v-3.42
			l-10.716,1.506v3.42l3.648-0.513v12.54L88.289,78.594z M96.953,72.588l7.296-1.025V60.391l-10.716,1.506v15.96l3.42-0.48V72.588z
			 M96.953,64.836l3.876-0.545v4.332l-3.876,0.545V64.836z M122.717,73.755v-15.96l-3.42,0.48v15.96L122.717,73.755z
			 M109.949,59.589l-3.42,0.481v15.96l10.488-1.475v-10.1l-7.068,0.993V59.589z M113.598,68.357v3.26l-3.648,0.513v-3.26
			L113.598,68.357z M136.465,71.823v-15.96l-3.42,0.481l-4.514,10.164v-9.53l-3.42,0.48v15.96l3.42-0.48l4.514-10.164v9.53
			L136.465,71.823z M133.638,52.02l-5.7,0.801v2.85l5.7-0.801V52.02z M26.152,131.727l20.304-2.854v-9.418l-6.48,0.91v2.938
			l-7.344,1.032v-17.28l7.344-1.032v2.938l6.48-0.91v-9.418l-20.304,2.854V131.727z M49.048,104.749l6.912-0.971v23.76l6.48-0.911
			v-23.76l6.912-0.972v-6.479l-20.304,2.854V104.749z M73.801,94.791l-2.938,30.652l6.48-0.911l0.648-7.219l7.128-1.002l0.648,7.037
			l6.48-0.91L89.31,92.611L73.801,94.791z M78.553,110.754l0.951-10.286l4.104-0.576l0.95,10.019L78.553,110.754z M95.272,122.012
			l6.479-0.91v-9.072l13.824-1.942V88.919l-20.304,2.854V122.012z M101.751,97.342l7.344-1.032v8.208l-7.344,1.032V97.342z
			 M117.649,95.108l6.912-0.972v23.76l6.48-0.91v-23.76l6.912-0.972v-6.48l-20.305,2.854V95.108z M141.754,105.976l5.227-0.735
			l0.648-20.826l-6.523,0.916L141.754,105.976z M141.236,115.552l6.265-0.88v-6.264l-6.265,0.88V115.552z"/>
	</g>
</g>
</svg>
